dist/img/logo.svg

<svg width="49" height="61" viewBox="0 0 49 61" fill="none" xmlns="http://www.w3.org/2000/svg">
<g clip-path="url(#clip0)">
<path d="M18.4238 49.1621V44.7441H16.1387L15.9512 47.3105C15.8926 48.1465 15.7266 48.748 15.4531 49.1152V49.1621H18.4238ZM14.7266 51.6113H13.7773V49.1621H14.2871C14.6973 48.8926 14.9375 48.2676 15.0078 47.2871L15.2422 43.9062H19.4375V49.1621H20.4043V51.6113H19.4551V50H14.7266V51.6113Z" fill="black"/>
<path d="M23.8496 50.1055C22.998 50.1055 22.3145 49.8223 21.7988 49.2559C21.2832 48.6855 21.0254 47.918 21.0254 46.9531C21.0254 45.9883 21.2832 45.2227 21.7988 44.6562C22.3145 44.0859 22.998 43.8008 23.8496 43.8008C24.6973 43.8008 25.3789 44.0859 25.8945 44.6562C26.4102 45.2227 26.668 45.9883 26.668 46.9531C26.668 47.9141 26.4102 48.6797 25.8945 49.25C25.3789 49.8203 24.6973 50.1055 23.8496 50.1055ZM22.543 48.6113C22.8672 49.0098 23.3027 49.209 23.8496 49.209C24.3965 49.209 24.8301 49.0117 25.1504 48.6172C25.4707 48.2188 25.6309 47.6641 25.6309 46.9531C25.6309 46.2422 25.4707 45.6895 25.1504 45.2949C24.8301 44.8965 24.3965 44.6973 23.8496 44.6973C23.3027 44.6973 22.8672 44.8965 22.543 45.2949C22.2227 45.6934 22.0625 46.2461 22.0625 46.9531C22.0625 47.6602 22.2227 48.2129 22.543 48.6113Z" fill="black"/>
<path d="M28.8066 50H27.7988V43.9062H29.0352L31.2031 48.6523H31.25L33.4297 43.9062H34.6191V50H33.6055V45.6758H33.5645L31.5957 49.8242H30.8164L28.8477 45.6758H28.8066V50Z" fill="black"/>
<path d="M4.08008 59V53.7441H1.13281V59H0.125V52.9062H5.09375V59H4.08008Z" fill="black"/>
<path d="M9.05469 59.1055C8.20312 59.1055 7.51953 58.8223 7.00391 58.2559C6.48828 57.6855 6.23047 56.918 6.23047 55.9531C6.23047 54.9883 6.48828 54.2227 7.00391 53.6562C7.51953 53.0859 8.20312 52.8008 9.05469 52.8008C9.90234 52.8008 10.584 53.0859 11.0996 53.6562C11.6152 54.2227 11.873 54.9883 11.873 55.9531C11.873 56.9141 11.6152 57.6797 11.0996 58.25C10.584 58.8203 9.90234 59.1055 9.05469 59.1055ZM7.74805 57.6113C8.07227 58.0098 8.50781 58.209 9.05469 58.209C9.60156 58.209 10.0352 58.0117 10.3555 57.6172C10.6758 57.2188 10.8359 56.6641 10.8359 55.9531C10.8359 55.2422 10.6758 54.6895 10.3555 54.2949C10.0352 53.8965 9.60156 53.6973 9.05469 53.6973C8.50781 53.6973 8.07227 53.8965 7.74805 54.2949C7.42773 54.6934 7.26758 55.2461 7.26758 55.9531C7.26758 56.6602 7.42773 57.2129 7.74805 57.6113Z" fill="black"/>
<path d="M18.0488 54.7812H17.041C16.9473 54.4648 16.7695 54.2051 16.5078 54.002C16.2461 53.7988 15.9121 53.6973 15.5059 53.6973C14.9746 53.6973 14.5488 53.9043 14.2285 54.3184C13.9082 54.7285 13.748 55.2734 13.748 55.9531C13.748 56.6445 13.9082 57.1934 14.2285 57.5996C14.5527 58.0059 14.9824 58.209 15.5176 58.209C15.916 58.209 16.2461 58.1152 16.5078 57.9277C16.7734 57.7402 16.9551 57.4766 17.0527 57.1367H18.0605C17.959 57.7227 17.6777 58.1973 17.2168 58.5605C16.7559 58.9238 16.1875 59.1055 15.5117 59.1055C14.6602 59.1055 13.9805 58.8223 13.4727 58.2559C12.9648 57.6855 12.7109 56.918 12.7109 55.9531C12.7109 55.0039 12.9648 54.2422 13.4727 53.668C13.9805 53.0898 14.6562 52.8008 15.5 52.8008C16.1992 52.8008 16.7734 52.9922 17.2227 53.375C17.6758 53.7578 17.9512 54.2266 18.0488 54.7812Z" fill="black"/>
<path d="M23.4629 52.9062V53.7441H21.4941V59H20.4863V53.7441H18.5176V52.9062H23.4629Z" fill="black"/>
<path d="M27.3711 52.8008C28.1523 52.8008 28.7812 53.0879 29.2578 53.6621C29.7383 54.2363 29.9785 55 29.9785 55.9531C29.9785 56.9023 29.7402 57.666 29.2637 58.2441C28.7871 58.8184 28.1641 59.1055 27.3945 59.1055C26.9648 59.1055 26.5801 59.0078 26.2402 58.8125C25.9004 58.6172 25.6387 58.3496 25.4551 58.0098H25.4316V61.0332H24.4121V52.9062H25.3789V53.9375H25.4023C25.5938 53.5859 25.8613 53.3086 26.2051 53.1055C26.5488 52.9023 26.9375 52.8008 27.3711 52.8008ZM27.1719 58.209C27.7148 58.209 28.1445 58.0059 28.4609 57.5996C28.7773 57.1934 28.9355 56.6445 28.9355 55.9531C28.9355 55.2617 28.7773 54.7129 28.4609 54.3066C28.1445 53.9004 27.7148 53.6973 27.1719 53.6973C26.6484 53.6973 26.2266 53.9043 25.9062 54.3184C25.5859 54.7324 25.4258 55.2773 25.4258 55.9531C25.4258 56.6328 25.5859 57.1797 25.9062 57.5938C26.2266 58.0039 26.6484 58.209 27.1719 58.209Z" fill="black"/>
<path d="M33.6406 59.1055C32.7891 59.1055 32.1055 58.8223 31.5898 58.2559C31.0742 57.6855 30.8164 56.918 30.8164 55.9531C30.8164 54.9883 31.0742 54.2227 31.5898 53.6562C32.1055 53.0859 32.7891 52.8008 33.6406 52.8008C34.4883 52.8008 35.1699 53.0859 35.6855 53.6562C36.2012 54.2227 36.459 54.9883 36.459 55.9531C36.459 56.9141 36.2012 57.6797 35.6855 58.25C35.1699 58.8203 34.4883 59.1055 33.6406 59.1055ZM32.334 57.6113C32.6582 58.0098 33.0938 58.209 33.6406 58.209C34.1875 58.209 34.6211 58.0117 34.9414 57.6172C35.2617 57.2188 35.4219 56.6641 35.4219 55.9531C35.4219 55.2422 35.2617 54.6895 34.9414 54.2949C34.6211 53.8965 34.1875 53.6973 33.6406 53.6973C33.0938 53.6973 32.6582 53.8965 32.334 54.2949C32.0137 54.6934 31.8535 55.2461 31.8535 55.9531C31.8535 56.6602 32.0137 57.2129 32.334 57.6113Z" fill="black"/>
<path d="M40.0391 53.6855C39.5664 53.6855 39.1738 53.8496 38.8613 54.1777C38.5527 54.502 38.3828 54.9199 38.3516 55.4316H41.6621C41.6504 54.916 41.4961 54.4961 41.1992 54.1719C40.9023 53.8477 40.5156 53.6855 40.0391 53.6855ZM41.6387 57.2539H42.6406C42.5508 57.793 42.2695 58.2363 41.7969 58.584C41.3281 58.9316 40.7637 59.1055 40.1035 59.1055C39.2324 59.1055 38.5469 58.8242 38.0469 58.2617C37.5469 57.6992 37.2969 56.9375 37.2969 55.9766C37.2969 55.0234 37.5469 54.2559 38.0469 53.6738C38.5508 53.0918 39.2207 52.8008 40.0566 52.8008C40.877 52.8008 41.5254 53.0762 42.002 53.627C42.4785 54.1777 42.7168 54.916 42.7168 55.8418V56.2285H38.3457V56.2871C38.3457 56.873 38.5059 57.3418 38.8262 57.6934C39.1465 58.0449 39.5801 58.2207 40.127 58.2207C40.5098 58.2207 40.8359 58.1328 41.1055 57.957C41.375 57.7812 41.5527 57.5469 41.6387 57.2539Z" fill="black"/>
<path d="M47.8613 59V56.2578H44.8555V59H43.8477V52.9062H44.8555V55.4199H47.8613V52.9062H48.8691V59H47.8613Z" fill="black"/>
<path d="M29.9235 36.9958H19.0763L16.8125 40.1989H32.1873L29.9235 36.9958Z" fill="#C1B0B5"/>
<path d="M24.5001 6.22412C24.4921 6.22973 13.9803 14.3151 10.0862 17.31V33.7931H38.914V17.31L24.5001 6.22412Z" fill="#F3EFF0"/>
<path d="M24.4999 6.22391C24.496 6.22663 8.65764 18.4084 8.65747 18.4085C8.19543 18.7608 7.60206 18.949 6.96304 18.8865C5.75548 18.7696 5.09564 18.0801 4.86422 17.0568C4.6376 16.055 5.03799 15.1261 5.74907 14.584L23.0457 1.29115C23.9035 0.637564 25.0957 0.637083 25.9541 1.29115C37.1714 9.91179 24.3144 0.0300186 43.2508 14.584C43.8274 15.0228 44.1989 15.7163 44.1989 16.4962C44.1989 17.8231 43.1235 18.8985 41.7966 18.8985C41.2497 18.8985 40.746 18.716 40.3424 18.4085C39.6598 17.8835 25.2125 6.77196 24.4999 6.22391Z" fill="#FF7B79"/>
<path d="M38.9137 30.6026C40.8468 30.7564 42.3763 32.2906 42.5596 34.2165C43.5334 34.7658 44.1988 35.798 44.1988 36.996C44.1988 38.7649 42.7646 40.199 40.9957 40.199C39.2028 40.199 35.9749 40.199 32.1872 40.199C30.8603 40.199 29.7849 39.1236 29.7849 37.7967C29.7849 36.7525 30.4578 35.8656 31.4009 35.537C31.307 33.6601 32.8109 32.1913 34.5895 32.1913C34.8458 32.1913 35.0916 32.229 35.3303 32.2858C36.1784 31.0894 37.5574 30.4896 38.9137 30.6026Z" fill="#D8EC84"/>
<path d="M38.9138 0.801025V11.2479L38.9122 11.2495L34.1091 7.55794V0.801025H38.9138Z" fill="#C1B0B5"/>
<path d="M27.703 17.2969C29.5992 17.2969 30.9061 18.904 30.9061 20.8075C30.9061 23.4404 28.2996 25.1837 24.4999 28.5077C20.7003 25.1837 18.0938 23.4404 18.0938 20.8075C18.0938 18.904 19.4006 17.2969 21.2968 17.2969C23.7312 17.2969 24.4999 20.0996 24.4999 20.0996C24.4999 20.0996 25.2687 17.2969 27.703 17.2969Z" fill="#FF7B79"/>
<path d="M19.2149 37.7967C19.2149 39.1236 18.1395 40.1991 16.8126 40.1991C13.025 40.1991 9.79704 40.1991 8.00411 40.1991C6.23521 40.1991 4.80103 38.7649 4.80103 36.996C4.80103 35.798 5.46647 34.7658 6.44021 34.2165C6.62358 32.2906 8.15306 30.7564 10.0861 30.6026C11.444 30.4895 12.8223 31.0906 13.6696 32.2858C13.9082 32.229 14.154 32.1913 14.4103 32.1913C16.1801 32.1913 17.6134 33.6262 17.6134 35.3944C17.6134 35.4433 17.6014 35.4889 17.599 35.537C18.5428 35.8659 19.2149 36.7535 19.2149 37.7967Z" fill="#D8EC84"/>
<path d="M21.2971 16.4961C18.9702 16.4961 17.2932 18.4432 17.2932 20.8074C17.2932 23.406 19.2931 25.1099 22.3205 27.6892C22.848 28.1387 23.3936 28.6035 23.9729 29.1103C24.1239 29.2424 24.312 29.3084 24.5002 29.3084C24.6883 29.3084 24.8764 29.2425 25.0274 29.1103C25.6067 28.6035 26.1523 28.1387 26.6799 27.6892C29.7072 25.1099 31.7071 23.406 31.7071 20.8074C31.7071 18.443 30.0297 16.4961 27.7032 16.4961C26.1126 16.4961 25.1037 17.4043 24.5002 18.2814C23.8967 17.4043 22.8877 16.4961 21.2971 16.4961ZM25.2724 20.3115C25.2785 20.2893 25.9005 18.0976 27.7032 18.0976C29.0728 18.0976 30.1056 19.2626 30.1056 20.8074C30.1056 22.6664 28.4251 24.0982 25.6412 26.4702C25.2718 26.785 24.8937 27.1071 24.5002 27.4469C24.1067 27.1071 23.7285 26.7849 23.3591 26.4702C20.5752 24.0982 18.8948 22.6664 18.8948 20.8074C18.8948 19.2626 19.9275 18.0976 21.2971 18.0976C23.0769 18.0976 23.7003 20.2141 23.7285 20.3138C23.8247 20.6603 24.1403 20.9003 24.5002 20.9003C24.8608 20.9003 25.177 20.6592 25.2724 20.3115Z" fill="black"/>
<path d="M14.0901 8.96899C14.5323 8.96899 14.8909 8.61047 14.8909 8.16821C14.8909 7.72595 14.5323 7.36743 14.0901 7.36743C13.6478 7.36743 13.2893 7.72595 13.2893 8.16821C13.2893 8.61047 13.6478 8.96899 14.0901 8.96899Z" fill="black"/>
<path d="M39.8574 19.0461C40.4189 19.4739 41.0896 19.7 41.7969 19.7C43.5631 19.7 45 18.2631 45 16.4969C45 15.488 44.5393 14.5588 43.7391 13.9497L39.7149 10.857V0.801748C39.7149 0.359562 39.3564 0.000976562 38.9141 0.000976562H34.1095C33.6672 0.000976562 33.3087 0.359562 33.3087 0.801748V5.93382L26.4397 0.654887C25.8782 0.227034 25.2075 0.000976562 24.5002 0.000976562C23.7929 0.000976562 23.1222 0.227034 22.558 0.656889L16.461 5.34261C16.1104 5.61207 16.0445 6.11487 16.3141 6.46545C16.5835 6.81603 17.0863 6.88193 17.437 6.61239L23.5313 1.92875C23.8115 1.71535 24.1465 1.60252 24.5002 1.60252C24.8539 1.60252 25.1889 1.71535 25.4665 1.92675L42.7661 15.2218C43.168 15.5276 43.3984 15.9924 43.3984 16.4969C43.3984 17.38 42.68 18.0984 41.7969 18.0984C41.4432 18.0984 41.1081 17.9856 40.8308 17.7743C39.9338 17.0845 25.712 6.14634 24.9884 5.5898C24.7108 5.37624 24.3266 5.36791 24.0399 5.5693C24.0036 5.59469 8.17383 17.7711 8.17215 17.7724C7.85112 18.0173 7.44977 18.13 7.04042 18.0902C6.24749 18.0134 5.81732 17.6405 5.64547 16.8807C5.50149 16.2442 5.72723 15.6083 6.23724 15.2196L11.7249 11.0023C12.0755 10.7328 12.1413 10.23 11.8718 9.87946C11.6023 9.52888 11.0994 9.46298 10.7489 9.73252L5.2639 13.9478C4.25173 14.7194 3.79945 15.9786 4.08349 17.2341C4.40836 18.6705 5.40372 19.5407 6.88547 19.6841C7.69785 19.7636 8.49958 19.5368 9.1434 19.0458L9.1422 19.0443C9.17624 19.0192 9.22268 18.9842 9.28562 18.9362V29.9227C7.45338 30.3622 6.03649 31.853 5.69816 33.7406C4.64179 34.4876 4.00053 35.7011 4.00053 36.9966C4.00053 39.2043 5.79666 41.0004 8.00439 41.0004H40.9962C43.2039 41.0004 45 39.2043 45 36.9966C45 35.7011 44.3588 34.4876 43.3024 33.7406C42.964 31.8522 41.5462 30.3609 39.7149 29.9224V18.9364L39.8574 19.0461ZM34.9102 1.60252H38.1133V9.62626L34.9102 7.1646V1.60252ZM16.8128 39.399H8.00431C6.67967 39.399 5.60199 38.3213 5.60199 36.9966C5.60199 36.141 6.07405 35.3433 6.8339 34.9146C7.06204 34.7859 7.21274 34.5538 7.23765 34.293C7.3942 32.6488 8.75543 31.3912 10.4067 31.3912C11.4379 31.3912 12.4136 31.8991 13.0166 32.7496C13.2056 33.0161 13.5375 33.1412 13.8554 33.0654C14.0606 33.0166 14.2422 32.9928 14.4106 32.9928C15.7037 32.9928 16.797 34.0314 16.8127 35.3668C16.7445 35.8483 17.0019 36.1774 17.3358 36.2938C17.9556 36.5097 18.4144 37.0957 18.4144 37.7973C18.4143 38.6805 17.6959 39.399 16.8128 39.399ZM30.6034 35.0232C30.1084 35.3032 29.6999 35.7071 29.4161 36.1959H19.584C19.3002 35.7069 18.8918 35.3032 18.397 35.0232C18.3836 34.879 18.3623 34.7359 18.3335 34.5936H30.667C30.6382 34.7358 30.6169 34.879 30.6034 35.0232ZM19.586 39.399C19.8593 38.9275 20.0159 38.3804 20.0159 37.7974H28.9845C28.9845 38.3804 29.1412 38.9275 29.4144 39.399H19.586ZM41.7628 34.293C41.7877 34.5538 41.9384 34.7859 42.1666 34.9146C42.9264 35.3433 43.3985 36.141 43.3985 36.9966C43.3985 38.3213 42.3208 39.399 40.9962 39.399H32.1877C31.3046 39.399 30.5861 38.6805 30.5861 37.7974C30.5861 37.095 31.0458 36.5094 31.6648 36.2939C32.0016 36.1766 32.2557 35.8455 32.1879 35.3669C32.2035 34.0348 33.2937 32.9929 34.59 32.9929C34.7583 32.9929 34.9399 33.0166 35.1452 33.0655C35.4629 33.1411 35.795 33.0162 35.984 32.7497C36.5871 31.8992 37.5627 31.3913 38.5939 31.3913C40.2445 31.3912 41.6061 32.6473 41.7628 34.293ZM38.1133 29.8149C36.9166 29.9369 35.8026 30.5095 35.001 31.4153C34.8612 31.3992 34.7247 31.3912 34.5899 31.3912C33.3266 31.3912 32.1397 31.995 31.3885 32.9928H17.612C16.8611 31.9953 15.674 31.3912 14.4105 31.3912C14.2756 31.3912 14.1392 31.3992 13.9994 31.4153C13.1978 30.5094 12.0839 29.9369 10.8871 29.8149V17.7049C12.0495 16.8109 23.1626 8.26326 24.5001 7.23475L38.1133 17.7048V29.8149Z" fill="black"/>
</g>
<defs>
<clipPath id="clip0">
<rect width="49" height="61" fill="white"/>
</clipPath>
</defs>
</svg>

<svg width="49" height="61" fill="none" xmlns="http://www.w3.org/2000/svg"><g clip-path="url(#a)"><path d="M18.424 49.162v-4.418h-2.285l-.188 2.566c-.058.837-.224 1.438-.498 1.805v.047h2.97Zm-3.697 2.45h-.95v-2.45h.51c.41-.27.65-.894.72-1.875l.235-3.38h4.195v5.255h.967v2.45h-.949V50h-4.728v1.611ZM23.85 50.105c-.852 0-1.536-.283-2.051-.85-.516-.57-.774-1.337-.774-2.302 0-.965.258-1.73.774-2.297.515-.57 1.199-.855 2.05-.855.848 0 1.53.285 2.046.855.515.567.773 1.332.773 2.297 0 .961-.258 1.727-.773 2.297-.516.57-1.198.855-2.045.855Zm-1.307-1.494c.324.399.76.598 1.307.598.546 0 .98-.197 1.3-.592.32-.398.48-.953.48-1.664 0-.71-.16-1.264-.48-1.658-.32-.398-.753-.598-1.3-.598s-.983.2-1.307.598c-.32.398-.48.951-.48 1.658s.16 1.26.48 1.658ZM28.807 50h-1.008v-6.094h1.236l2.168 4.746h.047l2.18-4.746h1.19V50h-1.014v-4.324h-.041l-1.97 4.148h-.779l-1.968-4.148h-.041V50ZM4.08 59v-5.256H1.133V59H.125v-6.094h4.969V59H4.08ZM9.055 59.105c-.852 0-1.535-.283-2.051-.85-.516-.57-.774-1.337-.774-2.302 0-.965.258-1.73.774-2.297.516-.57 1.2-.855 2.05-.855.848 0 1.53.285 2.046.855.515.567.773 1.332.773 2.297 0 .961-.258 1.727-.773 2.297-.516.57-1.198.855-2.045.855Zm-1.307-1.494c.324.399.76.598 1.307.598.547 0 .98-.197 1.3-.592.32-.398.48-.953.48-1.664 0-.71-.16-1.264-.48-1.658-.32-.398-.753-.598-1.3-.598s-.983.2-1.307.598c-.32.398-.48.951-.48 1.658s.16 1.26.48 1.658ZM18.049 54.781H17.04a1.504 1.504 0 0 0-.533-.779c-.262-.203-.596-.305-1.002-.305-.531 0-.957.207-1.277.621-.32.41-.481.955-.481 1.635 0 .691.16 1.24.48 1.647.325.406.754.609 1.29.609.398 0 .728-.094.99-.281a1.41 1.41 0 0 0 .545-.791h1.008a2.239 2.239 0 0 1-.844 1.423c-.461.364-1.03.545-1.705.545-.852 0-1.532-.283-2.04-.85-.507-.57-.761-1.337-.761-2.302 0-.95.254-1.71.762-2.285.507-.578 1.183-.867 2.027-.867.7 0 1.273.191 1.723.574.453.383.728.852.826 1.406ZM23.463 52.906v.838h-1.969V59h-1.008v-5.256h-1.968v-.838h4.945ZM27.371 52.8c.781 0 1.41.288 1.887.862.48.574.72 1.338.72 2.291 0 .95-.238 1.713-.714 2.291-.477.574-1.1.861-1.87.861-.43 0-.814-.097-1.154-.292a2.016 2.016 0 0 1-.785-.803h-.023v3.023h-1.02v-8.127h.967v1.032h.023c.192-.352.46-.63.803-.833a2.247 2.247 0 0 1 1.166-.304Zm-.2 5.409c.544 0 .974-.203 1.29-.61.316-.406.475-.954.475-1.646 0-.691-.159-1.24-.475-1.646-.316-.407-.746-.61-1.29-.61-.523 0-.944.207-1.265.621-.32.414-.48.96-.48 1.635 0 .68.16 1.227.48 1.64.32.41.742.616 1.266.616ZM33.64 59.105c-.85 0-1.535-.283-2.05-.85-.516-.57-.774-1.337-.774-2.302 0-.965.258-1.73.774-2.297.515-.57 1.2-.855 2.05-.855.848 0 1.53.285 2.045.855.516.567.774 1.332.774 2.297 0 .961-.258 1.727-.774 2.297-.515.57-1.197.855-2.044.855Zm-1.306-1.494c.324.399.76.598 1.307.598.547 0 .98-.197 1.3-.592.32-.398.48-.953.48-1.664 0-.71-.16-1.264-.48-1.658-.32-.398-.754-.598-1.3-.598-.547 0-.983.2-1.307.598-.32.398-.48.951-.48 1.658s.16 1.26.48 1.658ZM40.04 53.685c-.474 0-.866.165-1.179.493-.308.324-.478.742-.51 1.254h3.311c-.012-.516-.166-.936-.463-1.26-.297-.324-.683-.486-1.16-.486Zm1.599 3.569h1.002c-.09.539-.371.982-.844 1.33-.469.348-1.033.521-1.694.521-.87 0-1.556-.28-2.056-.843s-.75-1.325-.75-2.285c0-.954.25-1.721.75-2.303.504-.582 1.174-.873 2.01-.873.82 0 1.468.275 1.945.826.476.55.715 1.289.715 2.215v.386h-4.371v.06c0 .585.16 1.054.48 1.405.32.352.754.528 1.301.528.383 0 .709-.088.978-.264.27-.176.448-.41.534-.703ZM47.861 59v-2.742h-3.005V59h-1.008v-6.094h1.008v2.514h3.005v-2.514h1.008V59h-1.008Z" fill="#000"/><path d="M29.924 36.996H19.075l-2.264 3.203h15.375l-2.263-3.203Z" fill="#C1B0B5"/><path d="M24.5 6.224 10.086 17.31v16.483h28.828V17.31L24.5 6.224Z" fill="#F3EFF0"/><path d="M24.5 6.224 8.657 18.408a2.393 2.393 0 0 1-1.694.479c-1.208-.117-1.867-.807-2.099-1.83a2.408 2.408 0 0 1 .885-2.473L23.046 1.291a2.401 2.401 0 0 1 2.908 0l17.297 13.293a2.402 2.402 0 1 1-2.908 3.825L24.5 6.223Z" fill="#FF7B79"/><path d="M38.914 30.603c1.933.153 3.462 1.688 3.646 3.614a3.19 3.19 0 0 1 1.639 2.779 3.203 3.203 0 0 1-3.203 3.203h-8.809a2.396 2.396 0 0 1-.786-4.662c-.094-1.877 1.41-3.346 3.189-3.346.256 0 .502.038.74.095a3.99 3.99 0 0 1 3.584-1.683Z" fill="#D8EC84"/><path d="M38.914.801v10.447l-.002.002-4.803-3.692V.8h4.805Z" fill="#C1B0B5"/><path d="M27.703 17.297c1.896 0 3.203 1.607 3.203 3.51 0 2.633-2.606 4.377-6.406 7.7-3.8-3.323-6.406-5.067-6.406-7.7 0-1.903 1.307-3.51 3.203-3.51 2.434 0 3.203 2.803 3.203 2.803s.769-2.803 3.203-2.803Z" fill="#FF7B79"/><path d="M19.215 37.797a2.402 2.402 0 0 1-2.402 2.402H8.004a3.203 3.203 0 0 1-3.203-3.203 3.19 3.19 0 0 1 1.64-2.78c.183-1.925 1.712-3.46 3.645-3.613a3.99 3.99 0 0 1 3.584 1.683c.238-.057.484-.095.74-.095a3.203 3.203 0 0 1 3.203 3.203c0 .05-.012.095-.014.143a2.396 2.396 0 0 1 1.616 2.26Z" fill="#D8EC84"/><path d="M21.297 16.496c-2.327 0-4.004 1.947-4.004 4.311 0 2.599 2 4.303 5.027 6.882.528.45 1.074.915 1.653 1.421a.799.799 0 0 0 1.054 0c.58-.506 1.125-.971 1.653-1.42 3.027-2.58 5.027-4.284 5.027-6.883 0-2.364-1.677-4.31-4.004-4.31-1.59 0-2.6.907-3.203 1.784-.603-.877-1.612-1.785-3.203-1.785Zm3.975 3.816c.007-.023.629-2.214 2.431-2.214 1.37 0 2.403 1.165 2.403 2.71 0 1.858-1.68 3.29-4.465 5.662-.37.315-.747.637-1.14.977-.394-.34-.773-.662-1.142-.977-2.784-2.372-4.464-3.804-4.464-5.663 0-1.544 1.032-2.71 2.402-2.71 1.78 0 2.403 2.117 2.431 2.217a.8.8 0 0 0 1.544-.003ZM14.09 8.969a.8.8 0 1 0 0-1.602.8.8 0 0 0 0 1.602Z" fill="#000"/><path d="M39.857 19.046a3.174 3.174 0 0 0 1.94.654A3.207 3.207 0 0 0 45 16.497c0-1.009-.46-1.938-1.26-2.547l-4.025-3.093V.802a.8.8 0 0 0-.8-.801h-4.806a.8.8 0 0 0-.8.8v5.133l-6.87-5.28A3.174 3.174 0 0 0 24.5.002c-.707 0-1.378.226-1.942.656l-6.097 4.686a.8.8 0 1 0 .976 1.27l6.094-4.684c.28-.214.616-.326.97-.326.353 0 .688.112.965.324l17.3 13.295a1.603 1.603 0 0 1-1.935 2.553L24.988 5.59a.8.8 0 0 0-.948-.02c-.036.025-15.866 12.201-15.868 12.202a1.602 1.602 0 0 1-1.132.318c-.793-.077-1.223-.45-1.395-1.21a1.613 1.613 0 0 1 .592-1.66l5.488-4.218a.8.8 0 0 0-.976-1.27l-5.485 4.216a3.197 3.197 0 0 0-1.18 3.286c.324 1.436 1.32 2.307 2.801 2.45a3.197 3.197 0 0 0 2.258-.638v-.002l.143-.108v10.987a4.788 4.788 0 0 0-3.588 3.818 4 4 0 0 0-1.697 3.256A4.008 4.008 0 0 0 8.004 41h32.992A4.008 4.008 0 0 0 45 36.997a4 4 0 0 0-1.698-3.256 4.787 4.787 0 0 0-3.587-3.819V18.936l.142.11ZM34.91 1.603h3.203v8.023L34.91 7.165V1.603ZM16.813 39.399H8.004a2.405 2.405 0 0 1-2.402-2.402c0-.856.472-1.654 1.232-2.082a.801.801 0 0 0 .404-.622 3.186 3.186 0 0 1 3.169-2.902 3.21 3.21 0 0 1 2.61 1.359.8.8 0 0 0 .838.315c.206-.048.387-.072.556-.072a2.404 2.404 0 0 1 2.402 2.374c-.069.481.189.81.523.927.62.216 1.078.802 1.078 1.503 0 .884-.718 1.602-1.601 1.602Zm13.79-4.376c-.495.28-.903.684-1.187 1.173h-9.832a3.18 3.18 0 0 0-1.187-1.173 4.055 4.055 0 0 0-.063-.43h12.333c-.029.143-.05.286-.064.43ZM19.586 39.4c.273-.471.43-1.019.43-1.602h8.969c0 .583.156 1.13.43 1.602h-9.829Zm22.177-5.106a.8.8 0 0 0 .404.622 2.402 2.402 0 0 1 1.231 2.082 2.405 2.405 0 0 1-2.402 2.402h-8.808a1.603 1.603 0 0 1-1.602-1.602c0-.702.46-1.288 1.079-1.503.337-.117.59-.448.523-.927a2.404 2.404 0 0 1 2.402-2.374c.168 0 .35.024.555.072.318.076.65-.049.839-.315a3.21 3.21 0 0 1 2.61-1.359 3.185 3.185 0 0 1 3.169 2.902Zm-3.65-4.478a4.816 4.816 0 0 0-3.112 1.6 3.585 3.585 0 0 0-.411-.024c-1.263 0-2.45.604-3.202 1.602H17.613a4.02 4.02 0 0 0-3.201-1.602c-.135 0-.272.008-.412.024a4.815 4.815 0 0 0-3.112-1.6v-12.11L24.5 7.235l13.613 10.47v12.11Z" fill="#000"/></g><defs><clipPath id="a"><path fill="#fff" d="M0 0h49v61H0z"/></clipPath></defs></svg>
